assets/images/simple-illustrations/simple-illustration__messageinabottle.svg

<svg xmlns="http://www.w3.org/2000/svg" width="97" height="96" fill="none" viewBox="0 0 97 96"><path fill="#FF7101" d="M53.3841 21.3838C53.3841 21.3838 52.3671 22.7796 49.1094 22.7796H48.8684C45.551 22.7796 44.4674 21.3838 44.4674 21.3838L44.1689 19.0237L43.0715 10.3893C43.0715 10.3893 44.9357 9.38377 49.075 9.3103C53.1155 9.38377 54.7754 10.3893 54.7754 10.3893L53.6826 19.0237L53.3841 21.3838Z"/><path fill="#FFFAF0" d="M58.1938 84.8137C55.6845 85.2613 53.9719 82.7199 55.3057 80.3874C56.5432 78.2202 58.793 78.2363 59.6402 76.2068C60.4161 74.3518 60.1062 72.8022 60.2623 70.7888C60.4161 68.7754 61.1875 67.538 63.5131 67.538C65.8387 67.538 66.0408 69.5835 66.0408 70.7589H66.0798V73.1098C66.0798 73.1098 66.7823 81.5261 58.1915 84.816L58.1938 84.8137Z"/><path fill="#FFFAF0" d="M37.8073 48.1753C37.8073 49.8788 38.4248 53.4418 34.8641 53.4418C32.8186 53.4418 32.0518 51.7522 31.7671 50.3173V40.8954C31.7671 31.4483 41.9902 29.4349 41.9902 29.4349C41.9902 29.4349 42.1578 29.7242 42.6399 30.0272C42.8511 30.1581 43.122 30.2959 43.4732 30.4083C44.1918 30.8996 44.6349 31.7674 44.3112 33.1518C43.7441 35.5692 41.1293 35.0114 38.8932 38.2645C37.1897 40.7439 37.8096 46.4742 37.8096 48.1776L37.8073 48.1753Z"/><path fill="#FFFAF0" d="M31.7649 57.8498C32.1299 56.4494 33.1653 55.8319 34.8619 55.9191C37.8051 56.0729 37.3413 59.4775 37.3413 61.8032C37.3413 64.1288 36.1039 65.3662 34.0905 65.3662C32.0771 65.3662 31.7649 62.423 31.7649 62.423V57.8498Z"/><path fill="#8EECC4" d="M41.887 25.8193C40.4291 25.1879 39.2009 24.226 39.2009 22.7774C39.2009 19.2143 43.843 19.0605 43.843 19.0605L44.1667 19.0215L44.4651 21.3815C44.4651 21.3815 45.5487 22.7774 48.8661 22.7774H49.1072C52.3626 22.7774 53.3819 21.3815 53.3819 21.3815L53.6803 19.0215L54.0017 19.0605C54.0017 19.0605 58.6484 19.2143 58.6484 22.7774C58.6484 24.3913 57.1217 25.4014 55.455 26.0236L56.0174 26.0282L55.859 29.4328C55.859 29.4328 66.0821 31.4462 66.0821 40.8933V70.7522H66.0431C66.0431 69.5767 65.7217 67.5312 63.5154 67.5312C61.1898 67.5312 60.4184 68.7686 60.2646 70.782C60.1062 72.7954 60.4184 74.345 59.6425 76.2C58.7953 78.2318 56.5455 78.2134 55.308 80.3806C53.9742 82.7154 55.6846 85.2546 58.1961 84.8069C56.107 85.6104 53.4668 86.1109 50.1311 86.1109H47.7228C30.6813 86.1178 31.7649 73.1076 31.7649 73.1076V62.4231C31.7649 62.4231 32.0771 65.3663 34.0905 65.3663C36.1039 65.3663 37.3413 64.1243 37.3413 61.8032C37.3413 59.4822 37.8074 56.073 34.8619 55.9192C33.163 55.8319 32.1276 56.4495 31.7649 57.8499V50.3152C32.0496 51.75 32.8187 53.4397 34.8619 53.4397C38.4249 53.4397 37.8051 49.8767 37.8051 48.1732C37.8051 46.4698 37.1875 40.7395 38.8887 38.2601C41.1271 35.0093 43.7419 35.5648 44.3067 33.1474C44.6304 31.7653 44.1873 30.8975 43.4687 30.4039C43.2185 30.2317 42.9338 30.1055 42.6354 30.0228C42.1533 29.7198 41.9857 29.4305 41.9857 29.4305L41.8319 26.0259L41.8847 25.8147L41.887 25.8193Z"/><path stroke="#002140" stroke-linecap="round" stroke-linejoin="round" stroke-width=".999" d="M49.5755 9.30334C49.4033 9.30334 49.238 9.30334 49.075 9.30794C44.938 9.3814 43.0715 10.3869 43.0715 10.3869L44.1689 19.0214L44.4674 21.3814C44.4674 21.3814 45.551 22.7772 48.8684 22.7772"/><path stroke="#002140" stroke-linecap="round" stroke-linejoin="round" stroke-width=".999" d="M43.8452 19.0626C43.8452 19.0626 39.2031 19.2164 39.2031 22.7795C39.2031 24.2281 40.4314 25.1877 41.8892 25.8214C44.0174 26.742 46.6368 26.9624 46.6368 26.9624"/><path stroke="#002140" stroke-linecap="round" stroke-linejoin="round" stroke-width=".999" d="M44.9288 30.6769C44.3365 30.6379 43.859 30.5369 43.471 30.4083C43.1197 30.2936 42.8488 30.1581 42.6376 30.0272C42.1555 29.7242 41.9879 29.4349 41.9879 29.4349"/><path stroke="#002140" stroke-linecap="round" stroke-linejoin="round" stroke-width=".999" d="M48.5837 9.30334C48.7513 9.30334 48.9166 9.30334 49.075 9.30794C53.1156 9.3814 54.7754 10.3869 54.7754 10.3869L53.6827 19.0214L53.3842 21.3814C53.3842 21.3814 52.3672 22.7772 49.1095 22.7772"/><path stroke="#002140" stroke-linecap="round" stroke-linejoin="round" stroke-width=".999" d="M54.0017 19.0626C54.0017 19.0626 58.6483 19.2164 58.6483 22.7795C58.6483 24.3934 57.1216 25.4035 55.4549 26.0257C53.4415 26.7764 51.2169 26.9601 51.2169 26.9601"/><path stroke="#002140" stroke-linecap="round" stroke-linejoin="round" stroke-width=".999" d="M56.0174 26.0304L55.859 29.435C55.859 29.435 66.0821 31.4484 66.0821 40.8955V73.1075C66.0821 73.1075 66.7846 81.5238 58.1938 84.8137C56.1047 85.6172 53.4645 86.1177 50.1288 86.1177H47.7205C30.6813 86.1177 31.7649 73.1075 31.7649 73.1075V40.8955C31.7649 31.4484 41.988 29.435 41.988 29.435L41.8342 26.0304"/><path stroke="#002140" stroke-linecap="round" stroke-linejoin="round" stroke-width=".999" d="M52.9181 30.6769C55.2391 30.5185 55.859 29.4349 55.859 29.4349"/><path fill="#FFC68C" d="M44.4146 35.6313C44.4146 35.3558 47.4152 34.4191 52.1376 34.6923L52.0366 36.6965C50.5053 36.6254 49.4033 36.9169 49.2151 37.9523C49.1852 38.1153 49.1898 38.2692 49.2197 38.4184H49.2151C49.6099 61.2567 42.6629 72.5244 39.4029 77.1274L38.8359 77.1366C36.6687 77.2904 34.9652 76.3606 34.9652 76.3606C37.4446 72.8022 48.283 56.229 44.4123 35.6313H44.4146Z"/><path fill="#FFC68C" d="M63.4626 39.4995C63.4626 39.4995 63.256 39.9288 62.9139 40.6795C61.7431 41.9559 58.8734 42.1006 55.4113 41.359C52.4796 40.7323 49.5227 39.8461 49.2196 38.4159C49.1898 38.2666 49.1852 38.1128 49.215 37.9498C49.4033 36.9144 50.5053 36.6252 52.0365 36.694L52.1376 34.6898C52.7391 34.7243 53.3612 34.7771 54.0155 34.8574C59.282 35.475 63.7748 37.1784 63.4626 39.4995Z"/><path fill="#FFF2B2" d="M49.2196 38.416C49.5227 39.8463 52.4796 40.7325 55.4113 41.3592C58.8733 42.1007 61.7431 41.9561 62.9139 40.6796C61.3643 44.059 56.9862 53.9446 55.7167 60.4072C54.167 68.3047 52.9296 82.8645 52.9296 82.8645C52.9296 82.8645 44.8783 84.2557 38.0645 78.9892C38.3491 78.5645 38.8152 77.9492 39.4029 77.1251C42.6629 72.522 49.6099 61.2544 49.215 38.416H49.2196Z"/><path stroke="#002140" stroke-linecap="round" stroke-linejoin="round" stroke-width=".999" d="M54.0157 38.8822C55.5653 39.3483 58.8161 39.9658 58.97 39.1944C59.1284 38.4185 58.5085 37.7986 55.4115 37.1811C54.197 36.94 53.0285 36.7426 52.0367 36.6989C50.5054 36.6278 49.4035 36.9193 49.2152 37.9547C49.1854 38.1177 49.19 38.2715 49.2198 38.4208C49.5229 39.851 52.4798 40.7372 55.4115 41.364C58.8735 42.1055 61.7433 41.9609 62.9141 40.6844C63.2125 40.363 63.4008 39.9727 63.4628 39.5044C63.775 37.1833 59.2822 35.4799 54.0157 34.8623C53.3614 34.7843 52.7392 34.7315 52.1377 34.6947C47.4153 34.4238 44.4148 35.3582 44.4148 35.6337C48.2854 56.2314 37.4471 72.8023 34.9677 76.363C34.9677 76.363 36.6711 77.2928 38.8383 77.139"/><path stroke="#002140" stroke-linecap="round" stroke-linejoin="round" stroke-width=".999" d="M49.215 38.416C49.6099 61.2544 42.6629 72.522 39.4029 77.1251C38.8152 77.9492 38.3491 78.5645 38.0645 78.9892C44.8783 84.2557 52.9296 82.8645 52.9296 82.8645C52.9296 82.8645 54.167 68.3047 55.7167 60.4072C56.9839 53.9446 61.3643 44.059 62.9139 40.6796C63.256 39.9289 63.4626 39.4996 63.4626 39.4996"/><path fill="#780505" stroke="#002140" stroke-linecap="round" stroke-linejoin="round" stroke-width=".999" d="M43.9486 54.3694C47.9754 57.0026 51.846 57.9324 56.1827 57.7763C56.4927 60.7195 55.719 63.5065 54.943 65.3638C47.9731 66.2936 41.9352 62.1107 41.9352 62.1107C41.9352 62.1107 42.089 57.4641 43.9486 54.3671V54.3694Z"/></svg>

<svg xmlns="http://www.w3.org/2000/svg" width="97" height="96" fill="none" viewBox="0 0 97 96"><path fill="#ff7101" d="M53.384 21.384s-1.017 1.396-4.275 1.396h-.24c-3.318 0-4.402-1.396-4.402-1.396l-.298-2.36-1.097-8.635s1.864-1.005 6.003-1.079c4.04.074 5.7 1.08 5.7 1.08l-1.092 8.634z"/><path fill="#fffaf0" d="M58.194 84.814c-2.51.447-4.222-2.094-2.888-4.427 1.237-2.167 3.487-2.15 4.334-4.18.776-1.855.466-3.405.622-5.418.154-2.014.925-3.251 3.251-3.251s2.528 2.046 2.528 3.22h.039v2.352s.702 8.416-7.889 11.706zM37.807 48.175c0 1.704.618 5.267-2.943 5.267-2.045 0-2.812-1.69-3.097-3.125v-9.422c0-9.447 10.223-11.46 10.223-11.46s.168.29.65.592c.211.131.482.269.833.381.719.492 1.162 1.36.838 2.744-.567 2.417-3.182 1.86-5.418 5.112-1.703 2.48-1.083 8.21-1.083 9.914zM31.765 57.85c.365-1.4 1.4-2.018 3.097-1.93 2.943.153 2.48 3.557 2.48 5.883s-1.238 3.563-3.251 3.563-2.326-2.943-2.326-2.943z"/><path fill="#8eecc4" d="M41.887 25.82c-1.458-.632-2.686-1.594-2.686-3.043 0-3.563 4.642-3.716 4.642-3.716l.324-.04.298 2.36s1.084 1.396 4.401 1.396h.241c3.256 0 4.275-1.396 4.275-1.396l.298-2.36.322.04s4.646.153 4.646 3.716c0 1.614-1.526 2.624-3.193 3.247l.562.004-.158 3.405s10.223 2.013 10.223 11.46v29.86h-.039c0-1.176-.321-3.222-2.528-3.222-2.325 0-3.097 1.238-3.25 3.251-.159 2.013.153 3.563-.623 5.418-.847 2.032-3.097 2.013-4.334 4.18-1.334 2.335.377 4.875 2.888 4.427-2.089.803-4.73 1.304-8.065 1.304h-2.408c-17.042.007-15.958-13.003-15.958-13.003V62.423s.312 2.943 2.325 2.943 3.251-1.242 3.251-3.563c0-2.32.466-5.73-2.48-5.884-1.698-.087-2.733.53-3.096 1.93v-7.534c.285 1.435 1.054 3.125 3.097 3.125 3.563 0 2.943-3.563 2.943-5.267 0-1.703-.617-7.434 1.084-9.913 2.238-3.25 4.853-2.695 5.418-5.113.323-1.382-.12-2.25-.838-2.743a2.8 2.8 0 0 0-.834-.381c-.482-.303-.65-.593-.65-.593l-.153-3.404.053-.211z"/><path stroke="#002140" stroke-linecap="round" stroke-linejoin="round" stroke-width=".999" d="M49.576 9.303q-.258-.001-.501.005c-4.137.073-6.004 1.079-6.004 1.079l1.098 8.634.298 2.36s1.084 1.396 4.401 1.396"/><path stroke="#002140" stroke-linecap="round" stroke-linejoin="round" stroke-width=".999" d="M43.845 19.063s-4.642.153-4.642 3.717c0 1.448 1.228 2.408 2.686 3.041 2.128.921 4.748 1.141 4.748 1.141M44.929 30.677a5.8 5.8 0 0 1-1.458-.269 3.8 3.8 0 0 1-.833-.38c-.482-.304-.65-.593-.65-.593M48.584 9.303q.252-.001.491.005c4.04.073 5.7 1.079 5.7 1.079l-1.092 8.634-.299 2.36s-1.017 1.396-4.275 1.396"/><path stroke="#002140" stroke-linecap="round" stroke-linejoin="round" stroke-width=".999" d="M54.002 19.063s4.646.153 4.646 3.717c0 1.613-1.526 2.624-3.193 3.246-2.014.75-4.238.934-4.238.934"/><path stroke="#002140" stroke-linecap="round" stroke-linejoin="round" stroke-width=".999" d="m56.017 26.03-.158 3.405s10.223 2.013 10.223 11.46v32.213s.703 8.416-7.888 11.706c-2.09.803-4.73 1.304-8.065 1.304H47.72c-17.04 0-15.956-13.01-15.956-13.01V40.895c0-9.447 10.223-11.46 10.223-11.46l-.154-3.405"/><path stroke="#002140" stroke-linecap="round" stroke-linejoin="round" stroke-width=".999" d="M52.918 30.677c2.321-.159 2.941-1.242 2.941-1.242"/><path fill="#ffc68c" d="M44.415 35.631c0-.275 3-1.212 7.723-.939l-.101 2.005c-1.532-.072-2.634.22-2.822 1.255a1.2 1.2 0 0 0 .005.466h-.005c.395 22.839-6.552 34.106-9.812 38.71l-.567.009c-2.167.153-3.87-.776-3.87-.776 2.479-3.559 13.317-20.132 9.446-40.73z"/><path fill="#ffc68c" d="M63.463 39.5s-.207.429-.55 1.18c-1.17 1.276-4.04 1.42-7.502.679-2.931-.627-5.888-1.513-6.191-2.943a1.2 1.2 0 0 1-.005-.466c.188-1.036 1.29-1.325 2.821-1.256l.102-2.004c.601.034 1.223.087 1.878.167 5.266.618 9.759 2.321 9.447 4.642"/><path fill="#fff2b2" d="M49.22 38.416c.303 1.43 3.26 2.317 6.191 2.943 3.462.742 6.332.597 7.503-.68-1.55 3.38-5.928 13.266-7.197 19.728-1.55 7.898-2.787 22.458-2.787 22.458s-8.052 1.39-14.865-3.876c.284-.425.75-1.04 1.338-1.864 3.26-4.603 10.207-15.87 9.812-38.709z"/><path stroke="#002140" stroke-linecap="round" stroke-linejoin="round" stroke-width=".999" d="M54.016 38.882c1.55.466 4.8 1.084 4.954.312.158-.776-.462-1.395-3.559-2.013-1.214-.241-2.383-.438-3.374-.482-1.532-.071-2.633.22-2.822 1.256-.03.163-.025.317.005.466.303 1.43 3.26 2.316 6.191 2.943 3.462.742 6.332.597 7.503-.68.298-.321.487-.711.549-1.18.312-2.32-4.18-4.024-9.447-4.642a33 33 0 0 0-1.878-.167c-4.723-.271-7.723.663-7.723.939 3.87 20.597-6.968 37.168-9.447 40.729 0 0 1.703.93 3.87.776"/><path stroke="#002140" stroke-linecap="round" stroke-linejoin="round" stroke-width=".999" d="M49.215 38.416c.395 22.838-6.552 34.106-9.812 38.71-.588.823-1.054 1.438-1.338 1.863 6.813 5.267 14.865 3.876 14.865 3.876s1.237-14.56 2.787-22.458c1.267-6.462 5.647-16.348 7.197-19.727.342-.751.549-1.18.549-1.18"/><path fill="#780505" stroke="#002140" stroke-linecap="round" stroke-linejoin="round" stroke-width=".999" d="M43.949 54.37c4.026 2.633 7.897 3.562 12.234 3.406.31 2.943-.464 5.73-1.24 7.588-6.97.93-13.008-3.253-13.008-3.253s.154-4.647 2.014-7.744z"/></svg>
